X: 38742
T: Strike The Gay Harp
R: jig
M: 6/8
K: Dmajor
|:d2B cBA|dAF FED|d2B cAA|dAF EFA|
def Bcd|A3 F2 E|D3 DEF|AFE EFA:|
|:dB/c/d fdf|a3 afe|def a3|bge edB|
def a3|bgb a2g|fed dg/f/e|dAF EFA:|
|:def def|dAF D3|def def|dAF EFA|
def Bcd|A3 F2 E|D3 DEF|AFE EFA:|

